src/rounded/icons/fi-rr-scissors.svg

<svg id="Layer_1" height="512" viewBox="0 0 24 24" width="512" xmlns="http://www.w3.org/2000/svg" data-name="Layer 1"><path d="m19 14a4.929 4.929 0 0 0 -2.352.615l-3.348-4.015 7.467-8.96a1 1 0 0 0 -1.536-1.28l-7.231 8.678-7.232-8.678a1 1 0 0 0 -1.536 1.28l7.468 8.96-3.348 4.015a4.941 4.941 0 0 0 -2.352-.615 5 5 0 1 0 5 5 4.947 4.947 0 0 0 -1.112-3.1l3.112-3.738 3.111 3.738a4.955 4.955 0 0 0 -1.111 3.1 5 5 0 1 0 5-5zm-14 8a3 3 0 1 1 3-3 3 3 0 0 1 -3 3zm14 0a3 3 0 1 1 3-3 3 3 0 0 1 -3 3z"/></svg>

<svg id="Layer_1" data-name="Layer 1" xmlns="http://www.w3.org/2000/svg" viewBox="0 0 24 24"><path d="M19,14a4.929,4.929,0,0,0-2.352.615L13.3,10.6l7.467-8.96A1,1,0,0,0,19.231.36L12,9.038,4.768.36A1,1,0,0,0,3.232,1.64L10.7,10.6,7.352,14.615A4.941,4.941,0,0,0,5,14a5,5,0,1,0,5,5,4.947,4.947,0,0,0-1.112-3.1L12,12.162,15.111,15.9A4.955,4.955,0,0,0,14,19a5,5,0,1,0,5-5ZM5,22a3,3,0,1,1,3-3A3,3,0,0,1,5,22Zm14,0a3,3,0,1,1,3-3A3,3,0,0,1,19,22Z"/></svg>
